SVG_Azure_All/CDN Custom Domain.svg

<?xml version="1.0" encoding="UTF-8" standalone="no"?>
<!-- Generated by Microsoft Visio, SVG Export CDN Custom Domain.svg Page-1 -->

<svg
   xmlns:dc="http://purl.org/dc/elements/1.1/"
   xmlns:cc="http://creativecommons.org/ns#"
   xmlns:rdf="http://www.w3.org/1999/02/22-rdf-syntax-ns#"
   xmlns:svg="http://www.w3.org/2000/svg"
   xmlns="http://www.w3.org/2000/svg"
   xmlns:sodipodi="http://sodipodi.sourceforge.net/DTD/sodipodi-0.dtd"
   xmlns:inkscape="http://www.inkscape.org/namespaces/inkscape"
   width="0.78735936in"
   height="0.62991387in"
   viewBox="0 0 56.689782 45.353896"
   xml:space="preserve"
   class="st5"
   version="1.1"
   id="svg44"
   sodipodi:docname="CDN Custom Domain.svg"
   style="font-size:12px;overflow:visible;color-interpolation-filters:sRGB;fill:none;fill-rule:evenodd;stroke-linecap:square;stroke-miterlimit:3"
   inkscape:version="0.92.5 (2060ec1f9f, 2020-04-08)"><metadata
   id="metadata48"><rdf:RDF><cc:Work
       rdf:about=""><dc:format>image/svg+xml</dc:format><dc:type
         rdf:resource="http://purl.org/dc/dcmitype/StillImage" /></cc:Work></rdf:RDF></metadata><sodipodi:namedview
   pagecolor="#ffffff"
   bordercolor="#666666"
   borderopacity="1"
   objecttolerance="10"
   gridtolerance="10"
   guidetolerance="10"
   inkscape:pageopacity="0"
   inkscape:pageshadow="2"
   inkscape:window-width="640"
   inkscape:window-height="480"
   id="namedview46"
   showgrid="false"
   inkscape:zoom="1.5612629"
   inkscape:cx="37.795252"
   inkscape:cy="30.225663"
   inkscape:window-x="0"
   inkscape:window-y="0"
   inkscape:window-maximized="0"
   inkscape:current-layer="svg44" />
	<style
   type="text/css"
   id="style2">
	<![CDATA[
		.st1 {fill:url(#grad0-6);stroke:none;stroke-linecap:butt;stroke-width:34}
		.st2 {fill:#005ba1;stroke:none;stroke-linecap:butt;stroke-width:34}
		.st3 {fill:#f2f2f2;stroke:none;stroke-linecap:butt;stroke-width:34}
		.st4 {fill:#ffffff;stroke:none;stroke-linecap:butt;stroke-width:34}
		.st5 {fill:none;fill-rule:evenodd;font-size:12px;overflow:visible;stroke-linecap:square;stroke-miterlimit:3}
	]]>
	</style>

	<defs
   id="Patterns_And_Gradients">
		<linearGradient
   id="grad0-6"
   x1="0"
   y1="104.3574"
   x2="43.474643"
   y2="104.3574"
   gradientTransform="scale(1.3039785,0.76688381)"
   gradientUnits="userSpaceOnUse">
			<stop
   offset="0"
   stop-color="#32bedd"
   stop-opacity="1"
   id="stop4" />
			<stop
   offset="0.18"
   stop-color="#32caea"
   stop-opacity="1"
   id="stop6" />
			<stop
   offset="0.41"
   stop-color="#32d2f2"
   stop-opacity="1"
   id="stop8" />
			<stop
   offset="0.78"
   stop-color="#32d4f5"
   stop-opacity="1"
   id="stop10" />
		</linearGradient>
	</defs>
	<g
   id="g42"
   transform="translate(-34.000237,-34.0004)">
		<title
   id="title14">Page-1</title>
		<g
   id="group7167-1"
   transform="translate(34,-34.0157)">
			<title
   id="title16">CDN Custom Domain</title>
			<g
   id="group7168-2">
				<title
   id="title18">Sheet.7168</title>
				<g
   id="shape7169-3">
					<title
   id="title20">Sheet.7169</title>
					<path
   d="m 0,80.03 h 56.69 v 31.45 a 1.90088,1.89115 0 0 1 -1.9,1.89 H 1.9 A 1.90088,1.89115 0 0 1 0,111.48 Z"
   class="st1"
   id="path22"
   inkscape:connector-curvature="0"
   style="fill:url(#grad0-6);stroke:none;stroke-width:34;stroke-linecap:butt" />
				</g>
				<g
   id="shape7170-7"
   transform="translate(0,-33.3439)">
					<title
   id="title25">Sheet.7170</title>
					<path
   d="m 1.9,101.36 h 52.89 a 1.90088,1.89115 0 0 1 1.9,1.89 v 10.12 H 0 v -10.15 a 1.90088,1.89115 0 0 1 1.9,-1.86 z"
   class="st2"
   id="path27"
   inkscape:connector-curvature="0"
   style="fill:#005ba1;stroke:none;stroke-width:34;stroke-linecap:butt" />
				</g>
				<g
   id="shape7171-9"
   transform="translate(7.63687,-36.9271)">
					<title
   id="title30">Sheet.7171</title>
					<path
   d="m 0,112.44 a 0.933787,0.929006 -180 0 0 0.933766,0.92898 L 40.52,113.37 a 0.933787,0.929006 -180 0 0 0.933766,-0.92898 L 41.45,109.46 a 0.933787,0.929006 -180 0 0 -0.933766,-0.92898 L 0.93,108.53 a 0.933787,0.929006 -180 0 0 -0.933766,0.92898 z"
   class="st3"
   id="path32"
   inkscape:connector-curvature="0"
   style="fill:#f2f2f2;stroke:none;stroke-width:34;stroke-linecap:butt" />
				</g>
				<g
   id="shape7172-11"
   transform="translate(5.66929,-12.7404)">
					<title
   id="title35">Sheet.7172</title>
					<path
   d="m 14.94,103.42 -3,9.95 H 9.54 L 7.7,106.73 a 3.66836,3.64958 0 0 1 0,-0.89 3.33488,3.3178 0 0 1 0,0.86 l -2.36,6.67 H 2.97 L 0,103.42 h 2.37 l 1.83,7.26 a 4.76887,4.74445 0 0 1 0,0.87 4.40204,4.3795 0 0 1 0,-0.87 l 2.4,-7.26 h 2.17 l 1.83,7.3 a 5.30245,5.2753 0 0 1 0,0.86 5.03566,5.00988 0 0 1 0,-0.86 l 2.07,-7.3 z m 15.34,0 -3,9.95 h -2.4 l -1.84,-6.64 a 3.66836,3.64958 0 0 1 0,-0.89 6.16952,6.13793 0 0 1 -0.36,0.89 l -2,6.64 h -2.34 l -3,-9.95 h 2.37 l 1.87,7.26 a 5.20241,5.17577 0 0 1 0,0.87 c 0,-0.27 0,-0.57 0.16,-0.87 l 2.24,-7.26 h 2.13 l 1.84,7.3 a 5.30245,5.2753 0 0 1 0,0.86 5.03566,5.00988 0 0 1 0,-0.86 l 2.16,-7.3 z m 15.37,0 -2.96,9.95 h -2.4 l -1.91,-6.64 a 6.43631,6.40335 0 0 1 0,-0.89 3.33488,3.3178 0 0 1 -0.16,0.86 l -2.2,6.67 h -2.34 l -3,-9.95 h 2.4 l 1.84,7.26 a 4.76887,4.74445 0 0 1 0,0.87 4.23529,4.21361 0 0 1 0,-0.87 l 2.4,-7.26 h 2.03 l 1.8,7.3 a 5.30245,5.2753 0 0 1 0,0.86 5.5359,5.50755 0 0 1 0,-0.86 l 2.3,-7.3 z"
   class="st4"
   id="path37"
   inkscape:connector-curvature="0"
   style="fill:#ffffff;stroke:none;stroke-width:34;stroke-linecap:butt" />
				</g>
			</g>
		</g>
	</g>
</svg>

<?xml version="1.0" encoding="UTF-8" standalone="no"?>
<!DOCTYPE svg PUBLIC "-//W3C//DTD SVG 1.1//EN" "http://www.w3.org/Graphics/SVG/1.1/DTD/svg11.dtd">
<!-- Generated by Microsoft Visio, SVG Export CDN Custom Domain.svg Page-1 -->
<svg xmlns="http://www.w3.org/2000/svg" xmlns:xlink="http://www.w3.org/1999/xlink" xmlns:ev="http://www.w3.org/2001/xml-events"
		width="1.73185in" height="1.57458in" viewBox="0 0 124.693 113.37" xml:space="preserve" color-interpolation-filters="sRGB"
		class="st5">
	<style type="text/css">
	<![CDATA[
		.st1 {fill:url(#grad0-6);stroke:none;stroke-linecap:butt;stroke-width:34}
		.st2 {fill:#005ba1;stroke:none;stroke-linecap:butt;stroke-width:34}
		.st3 {fill:#f2f2f2;stroke:none;stroke-linecap:butt;stroke-width:34}
		.st4 {fill:#ffffff;stroke:none;stroke-linecap:butt;stroke-width:34}
		.st5 {fill:none;fill-rule:evenodd;font-size:12px;overflow:visible;stroke-linecap:square;stroke-miterlimit:3}
	]]>
	</style>

	<defs id="Patterns_And_Gradients">
		<linearGradient id="grad0-6" x1="0" y1="0" x2="1" y2="0" gradientTransform="rotate(-90 0.5 0.5)">
			<stop offset="0" stop-color="#32bedd" stop-opacity="1"/>
			<stop offset="0.18" stop-color="#32caea" stop-opacity="1"/>
			<stop offset="0.41" stop-color="#32d2f2" stop-opacity="1"/>
			<stop offset="0.78" stop-color="#32d4f5" stop-opacity="1"/>
		</linearGradient>
	</defs>
	<g>
		<title>Page-1</title>
		<g id="group6999-1" transform="translate(34,-34.0157)">
			<title>CDN Custom Domain</title>
			<g id="group7000-2">
				<title>Sheet.7000</title>
				<g id="shape7001-3">
					<title>Sheet.7001</title>
					<path d="M0 80.03 L56.69 80.03 L56.69 111.48 A1.90088 1.89115 0 0 1 54.79 113.37 L1.9 113.37 A1.90088 1.89115
								 0 0 1 0 111.48 L0 80.03 Z" class="st1"/>
				</g>
				<g id="shape7002-7" transform="translate(0,-33.3439)">
					<title>Sheet.7002</title>
					<path d="M1.9 101.36 L54.79 101.36 A1.90088 1.89115 0 0 1 56.69 103.25 L56.69 113.37 L0 113.37 L0 103.22 A1.90088
								 1.89115 0 0 1 1.9 101.36 Z" class="st2"/>
				</g>
				<g id="shape7003-9" transform="translate(7.63687,-36.9271)">
					<title>Sheet.7003</title>
					<path d="M0 112.44 a0.933787 0.929006 -180 0 0 0.933766 0.928984 L40.52 113.37 a0.933787 0.929006 -180 0 0 0.933766
								 -0.928984 L41.45 109.46 a0.933787 0.929006 -180 0 0 -0.933766 -0.928984 L0.93 108.53 a0.933787 0.929006
								 -180 0 0 -0.933766 0.928984 L0 112.44 Z" class="st3"/>
				</g>
				<g id="shape7004-11" transform="translate(5.66929,-12.7404)">
					<title>Sheet.7004</title>
					<path d="M14.94 103.42 L11.94 113.37 L9.54 113.37 L7.7 106.73 A3.66836 3.64958 0 0 1 7.7 105.84 A3.33488 3.3178
								 0 0 1 7.7 106.7 L5.34 113.37 L2.97 113.37 L0 103.42 L2.37 103.42 L4.2 110.68 A4.76887 4.74445 0
								 0 1 4.2 111.55 A4.40204 4.3795 0 0 1 4.2 110.68 L6.6 103.42 L8.77 103.42 L10.6 110.72 A5.30245 5.2753
								 0 0 1 10.6 111.58 A5.03566 5.00988 0 0 1 10.6 110.72 L12.67 103.42 L14.94 103.42 ZM30.28 103.42
								 L27.28 113.37 L24.88 113.37 L23.04 106.73 A3.66836 3.64958 0 0 1 23.04 105.84 A6.16952 6.13793 0
								 0 1 22.68 106.73 L20.68 113.37 L18.34 113.37 L15.34 103.42 L17.71 103.42 L19.58 110.68 A5.20241
								 5.17577 0 0 1 19.58 111.55 C19.58 111.28 19.58 110.98 19.74 110.68 L21.98 103.42 L24.11 103.42 L25.95
								 110.72 A5.30245 5.2753 0 0 1 25.95 111.58 A5.03566 5.00988 0 0 1 25.95 110.72 L28.11 103.42 L30.28
								 103.42 ZM45.65 103.42 L42.69 113.37 L40.29 113.37 L38.38 106.73 A6.43631 6.40335 0 0 1 38.38 105.84
								 A3.33488 3.3178 0 0 1 38.22 106.7 L36.02 113.37 L33.68 113.37 L30.68 103.42 L33.08 103.42 L34.92
								 110.68 A4.76887 4.74445 0 0 1 34.92 111.55 A4.23529 4.21361 0 0 1 34.92 110.68 L37.32 103.42 L39.35
								 103.42 L41.15 110.72 A5.30245 5.2753 0 0 1 41.15 111.58 A5.5359 5.50755 0 0 1 41.15 110.72 L43.45
								 103.42 L45.65 103.42 Z" class="st4"/>
				</g>
			</g>
		</g>
	</g>
</svg>
